src/images/Footer-facebook-tablet.svg

<svg width="24" height="24" viewBox="0 0 24 24" fill="none" xmlns="http://www.w3.org/2000/svg">
<path fill-rule="evenodd" clip-rule="evenodd" d="M23 12C23 18.0751 18.0751 23 12 23C5.92487 23 1 18.0751 1 12C1 5.92487 5.92487 1 12 1C18.0751 1 23 5.92487 23 12ZM13.8026 12.4306H15.7654L16.0252 9.9058H13.8028V8.41849C13.8028 7.86062 14.1714 7.72964 14.4336 7.72964H16.0319V5.27661L13.829 5.2674C11.3843 5.2674 10.8287 7.09864 10.8287 8.26809V9.90344H9.41438V12.4306H10.8287V19.6214H13.8026V12.4306Z" fill="#1A1B22"/>
</svg>

<svg width="24" height="24" fill="none" xmlns="http://www.w3.org/2000/svg"><path fill-rule="evenodd" clip-rule="evenodd" d="M23 12c0 6.075-4.925 11-11 11S1 18.075 1 12 5.925 1 12 1s11 4.925 11 11zm-9.197.43h1.962l.26-2.524h-2.222V8.418c0-.557.368-.688.63-.688h1.599V5.277l-2.203-.01c-2.445 0-3 1.832-3 3.001v1.635H9.414v2.528h1.415v7.19h2.974v-7.19z" fill="#1A1B22"/></svg>
